X:1
T:Schottis  Finlandaise
C:apprise de Jean-Yves Martial, fichier abc : Bernard Loffet
L:1/8
Q:350
M:4/4
K:C
 [cA,,]B [AA,]^G [A2A,,2] [E2A,2] | [FD,,]G [FD,]E [D2D,,2] D,2 | [E2E,,2] [EE,]^G [B2E,,2] [B2E,2] | \
 [EA,,]F [EA,]D [C2A,,2] A,2 | [cA,,]B [AA,]^G [A2A,,2] [E2A,2] | [FD,,]G [FD,]E [D2D,,2] D,2 | \
 [E2E,,2] [EE,]^G [BE,,]d [cE,]B | [A2A,,2] [A2A,2] [A2A,,2] A,2 | [G2C,,2] [G2C,2] [G2C,,2] C,2 | \
 [GC,,]F [EC,]F [G2C,,2] C,2 | [A2F,,2] [A2F,2] [AF,,]B [cF,]A | [GC,,]F [EC,]F [G2C,,2] C,2 | \
 [B2E,,2] [BE,]c [d2E,,2] [d2E,2] | [eA,,]f [eA,]d [c2A,,2] A,2 | [BE,,]c [BE,]A [^G2E,,2] E,2 | \
 [EA,,]F [EA,]D [C2E,,2] E,2 | [cA,,]B [AA,]^G [A2A,,2] [E2A,2] | [FD,,]G [FD,]E [D2D,,2] D,2 | \
 [E2E,,2] [EE,]^G [BE,,]d [cE,]B | [A2A,,2] [A2A,2] [A2A,,2] A,2 | \
W:Created with TablEdit http://www.tabledit.com/ by Bernard Loffet
